X:1
T:The Lid Of Me Granny's Bin
M:4/4
L:1/8
K:C
 G,| C3/2 C/2 C3/2 D/2 E3/2 E/2 E3/2 D/2| C3/2 D/2 C3/2 A,/2 G,3 G,|\
 D2 D3/2 E/2 F2 F2| C3/2 D/2 E3/2 F/2 G3| G| G2 GG F2 F3/2 F/2| E3/2 F/2 G3/2 E/2 D3 D|\
 G3/2 G/2 G3/2 G/2 G3/2 G/2 G2| z G,/2 G,/2 A,3/2 B,/2| C4| G2 G| C2 G,2 C2 z2|\
 EE CE G2 z2| A3/2 A/2 A3/2 A/2 G3/2 G/2 GE| DC B,C D2 z2| CC CD EE z2|\
 CD CA, G,2 z2| c2 A2 G2 C2| EE B,2 C4|
